X:1
T:Title
%%score { ( 1 3 ) | ( 2 4 ) }
L:1/8
M:4/4
K:D
V:1 treble nm="Grand Piano"
V:3 treble 
V:2 bass 
V:4 bass 
V:1
 z4 z2[Q:1/4=100] [DF][EG] | [FA][FA][=F^G][^FA] [Fd]2 [=GB]2 | [FA]2 [A,DF]4 [DFA]2 | %3
 [CEA][CE][=C^D][^CE] [CA]2 [EG]2 | [DF]6 [DF][EG] | [FA][FA][=F^G][^FA] [Fd]2 [=GB]2 | %6
 [FA]2 F4 F2 | EF^GA B2 c2 |[M:5/8] [A,CA]-[A,CA]- [A,CA]3 |[M:3/8] ABc | %10
[M:4/4] z4 [DAc]2[K:bass][K:treble] z2 | [DFA]2 [A,DF]4 [DFA]2 | [CEA]2 [A,CE]4 [CGB]2 | %13
 [DFA]2 [A,DF]2 z ABc | [Fd][Fd][Fd][Fd] [Gc]2 [Ad]2 | e2 d2 c2 B2 | z4 [=GB]2 z2 |[M:3/4] [Fd]6 |] %18
V:2
 z4 z2 [D,A,][D,A,] | [D,D][D,D][D,D][D,D] [D,A,]2 [D,D]2 | [D,D]2 D,4 D,2 | %3
 A,,[A,,A,][A,,A,][A,,A,] [A,,E,]2 [A,,A,]2 | [D,A,]6 [D,A,][D,A,] | %5
 [D,D][D,D][D,D][D,D] [D,A,]2 [D,D]2 | [D,D]2 [D,A,D]4 [D,A,D]2 | %7
 [E,A,C][E,A,C][E,B,D][E,A,C] [E,^G,D]2 [E,G,E]2 |[M:5/8] A,,-A,,- A,,3 | %9
[M:3/8] A,[K:treble][A,^G][A,=G] |[M:4/4][K:bass] z4 z2 G,2 | D,2 D,4 D,2 | A,,2 A,,4 A,,2 | %13
 D,2 D,2 z A,[K:treble][A,^G][A,=G] | [D,A,][D,A,][D,A,][D,A,] [E,A,]2 [F,D]2 | %15
 [G,B,G]2 [G,B,G]2 [G,B,G]2 [G,DG]2 | [A,DF][A,DF]=F^F[K:bass] A,A,[A,,A,][A,,A,] | %17
[M:3/4] [D,A,]6 |] %18
V:3
 x8 | x8 | x8 | x8 | x8 | x8 | x8 | x8 |[M:5/8] x5 |[M:3/8] x3 | %10
[M:4/4] [Fd][Fd][Gd][Ad] z[K:bass] A,,[K:treble] [DGB]2 | x8 | x8 | x8 | x8 | x8 | %16
 AA^GA CC [=Gc]2 |[M:3/4] x6 |] %18
V:4
 x8 | x8 | x8 | x8 | x8 | x8 | x8 | x8 |[M:5/8] x5 |[M:3/8] x[K:treble] x2 | %10
[M:4/4][K:bass] [D,A,][D,A,][E,A,][F,D] .[G,,G,]2 B,,A,, | x8 | x8 | x6[K:treble] x2 | x8 | x8 | %16
 x4[K:bass] x4 |[M:3/4] x6 |] %18

